svgs/duotone/file-arrow-up.svg

<svg xmlns="http://www.w3.org/2000/svg" viewBox="0 0 384 512"><!--! Font Awesome Pro 6.3.0 by @fontawesome - https://fontawesome.com License - https://fontawesome.com/license (Commercial License) Copyright 2023 Fonticons, Inc. --><defs><style>.fa-secondary{opacity:.4}</style></defs><path class="fa-primary" d="M256 0v128h128L256 0zM208.1 231c-9.375-9.375-24.56-9.375-33.94 0l-80 80c-9.375 9.375-9.375 24.56 0 33.94s24.56 9.375 33.94 0L168 305.9V424C168 437.3 178.8 448 192 448s24-10.75 24-24V305.9l39.03 39.03C259.7 349.7 265.8 352 272 352s12.28-2.344 16.97-7.031c9.375-9.375 9.375-24.56 0-33.94L208.1 231z"/><path class="fa-secondary" d="M256 128V0H48C21.49 0 0 21.49 0 48v416C0 490.5 21.49 512 48 512h288c26.51 0 48-21.49 48-48V128H256zM288.1 344.1C284.3 349.7 278.2 352 272 352s-12.28-2.344-16.97-7.031L216 305.9V424c0 13.25-10.75 24-24 24s-24-10.75-24-24V305.9l-39.03 39.03c-9.375 9.375-24.56 9.375-33.94 0s-9.375-24.56 0-33.94l80-80c9.375-9.375 24.56-9.375 33.94 0l80 80C298.3 320.4 298.3 335.6 288.1 344.1z"/></svg>

<svg xmlns="http://www.w3.org/2000/svg" viewBox="0 0 384 512"><!-- Font Awesome Pro 6.0.0-alpha2 by @fontawesome - https://fontawesome.com License - https://fontawesome.com/license (Commercial License) --><defs><style>.fa-secondary{opacity:.4}</style></defs><path d="M256 128V0H48C21.49 0 0 21.492 0 48V464C0 490.508 21.49 512 48 512H336C362.51 512 384 490.508 384 464V128H256ZM288.969 344.969C284.281 349.656 278.156 352 272 352S259.719 349.656 255.031 344.969L216 305.938V424C216 437.25 205.25 448 192 448S168 437.25 168 424V305.938L128.969 344.969C119.594 354.344 104.406 354.344 95.031 344.969S85.656 320.406 95.031 311.031L175.031 231.031C184.406 221.656 199.594 221.656 208.969 231.031L288.969 311.031C298.344 320.406 298.344 335.594 288.969 344.969Z" class="fa-secondary"/><path d="M256 0V128H384L256 0ZM208.969 231.031C199.594 221.656 184.406 221.656 175.031 231.031L95.031 311.031C85.656 320.406 85.656 335.594 95.031 344.969S119.594 354.344 128.969 344.969L168 305.938V424C168 437.25 178.75 448 192 448S216 437.25 216 424V305.938L255.031 344.969C259.719 349.656 265.844 352 272 352S284.281 349.656 288.969 344.969C298.344 335.594 298.344 320.406 288.969 311.031L208.969 231.031Z" class="fa-primary"/></svg>
